src/images/crypto-icon-svg/sngls.svg

<svg xmlns="http://www.w3.org/2000/svg" width="32" height="32" viewBox="0 0 32 32">
  <g fill="none" fill-rule="evenodd">
    <circle cx="16" cy="16" r="16" fill="#B30D23"/>
    <path fill="#FFF" fill-rule="nonzero" d="M16.9126638,21.2335878 L15.980786,22.970229 L15.0489083,21.2335878 C9.41921397,20.7969466 5,16.5992366 5,16.5992366 C5,16.589313 9.29432314,12.5206107 14.8087336,11.9847328 L15.5388646,10.7343511 L15.980786,10 L16.730131,11.2503817 L17.1528384,11.9847328 C22.6672489,12.510687 26.9615721,16.5992366 26.9615721,16.5992366 C26.9615721,16.5992366 22.5423581,20.7969466 16.9126638,21.2335878 Z M5.93187773,16.5992366 C5.92227074,16.5992366 10.1781659,19.5068702 14.4532751,20.1221374 L12.368559,16.2221374 L12.9353712,15.2396947 L13.4541485,16.2122137 L13.4445415,16.2221374 L15.4716157,20.2114504 C15.6349345,20.221374 15.7982533,20.221374 15.9615721,20.221374 C16.1248908,20.221374 16.2786026,20.221374 16.4419214,20.2114504 L17.9310044,17.2442748 L19.0165939,15.2198473 L19.5834061,16.2022901 L17.49869,20.1122137 C21.7737991,19.5068702 26.0296943,16.6687023 26.0296943,16.589313 C26.0296943,16.5198473 21.9755459,13.810687 17.8061135,13.1160305 L18.4401747,14.2175573 L17.9117904,15.2793893 L16.5379913,12.9770992 C16.3554585,12.9671756 16.1633188,12.9572519 15.980786,12.9572519 C15.7982533,12.9572519 15.6061135,12.9671756 15.4139738,12.9770992 L14.0113537,15.2793893 L13.4925764,14.2671756 L14.1554585,13.1259542 C9.9860262,13.8305344 5.93187773,16.5992366 5.93187773,16.5992366 Z"/>
  </g>
</svg>

<svg xmlns="http://www.w3.org/2000/svg" width="32" height="32"><g fill="none" fill-rule="evenodd"><circle cx="16" cy="16" r="16" fill="#B30D23"/><path fill="#FFF" fill-rule="nonzero" d="M16.913 21.234l-.932 1.736-.932-1.736C9.419 20.797 5 16.599 5 16.599c0-.01 4.294-4.078 9.809-4.614l.73-1.25.442-.735.75 1.25.422.735c5.514.526 9.809 4.614 9.809 4.614s-4.42 4.198-10.05 4.635zM5.932 16.599c-.01 0 4.246 2.908 8.521 3.523l-2.084-3.9.566-.982.52.972-.01.01 2.027 3.99c.163.01.326.01.49.01.163 0 .317 0 .48-.01l1.489-2.968 1.086-2.024.566.982-2.084 3.91c4.275-.605 8.53-3.443 8.53-3.523 0-.07-4.053-2.778-8.223-3.473l.634 1.102-.528 1.061-1.374-2.302a10.45 10.45 0 0 0-.557-.02c-.183 0-.375.01-.567.02l-1.403 2.302-.518-1.012.662-1.141c-4.169.705-8.223 3.473-8.223 3.473z"/></g></svg>
